svgs/mi_files.svg

<svg id="vector" xmlns="http://www.w3.org/2000/svg" width="192" height="192" viewBox="0 0 192 192"><path fill="#00000000" d="M162,60V144C162,153.94 153.94,162 144,162H48C38.06,162 30,153.94 30,144V48C30,38.06 38.06,30 48,30H70.8C78.09,30 84,35.91 84,43.2C84,49.16 88.84,54 94.8,54H156C159.31,54 162,56.69 162,60Z" stroke-width="12" stroke="#000000" id="path_0"/><path fill="#00000000" d="M162,60V48C162,41.37 156.63,36 150,36H83" stroke-width="12" stroke="#000000" id="path_1"/><path fill="#000000" d="M54,130C54,129.45 54.45,129 55,129L63,129C64.66,129 66,130.34 66,132V143C66,143.55 66.45,144 67,144H71C71.55,144 72,143.55 72,143V132C72,127.03 67.97,123 63,123L49,123C48.45,123 48,123.45 48,124V143C48,143.55 48.45,144 49,144H53C53.55,144 54,143.55 54,143V130ZM80,123C80.55,123 81,123.45 81,124V143C81,143.55 80.55,144 80,144H76C75.45,144 75,143.55 75,143V124C75,123.45 75.45,123 76,123H80ZM62,132C62.55,132 63,132.45 63,133V143C63,143.55 62.55,144 62,144H58C57.45,144 57,143.55 57,143V133C57,132.45 57.45,132 58,132H62Z" fill-rule="evenodd" id="path_2"/></svg>

<svg width="192" height="192" viewBox="0 0 192 192" fill="none" xmlns="http://www.w3.org/2000/svg"><path d="M162 60v84c0 9.941-8.059 18-18 18H48c-9.941 0-18-8.059-18-18V48c0-9.941 8.059-18 18-18h22.8C78.09 30 84 35.91 84 43.2 84 49.165 88.835 54 94.8 54H156a6 6 0 0 1 6 6Z" stroke="#000" stroke-width="12"/><path d="M162 60V48c0-6.627-5.373-12-12-12H83" stroke="#000" stroke-width="12"/><path fill-rule="evenodd" clip-rule="evenodd" d="M54 130a1 1 0 0 1 1-1h8a3 3 0 0 1 3 3v11a1 1 0 0 0 1 1h4a1 1 0 0 0 1-1v-11a9 9 0 0 0-9-9H49a1 1 0 0 0-1 1v19a1 1 0 0 0 1 1h4a1 1 0 0 0 1-1v-13Zm26-7a1 1 0 0 1 1 1v19a1 1 0 0 1-1 1h-4a1 1 0 0 1-1-1v-19a1 1 0 0 1 1-1h4Zm-18 9a1 1 0 0 1 1 1v10a1 1 0 0 1-1 1h-4a1 1 0 0 1-1-1v-10a1 1 0 0 1 1-1h4Z" fill="#000"/></svg>
